svg/Gray/text.svg

<svg viewBox="0 0 48 48" xmlns="http://www.w3.org/2000/svg"><g fill="none" stroke="#0066b3"><g stroke-linecap="round" stroke-width="2" transform="translate(-3.840157 -7.432093)"><path d="m19.242002 31.368589h6.114906"/><path d="m5.7815044 25.4958h10.5386306"/><path d="m11.046834 25.653156v12.954293"/><path d="m28.924296 25.501648 8.359278 12.613044m1.705765-14.857955"/><path d="m36.829689 25.567244-8.359279 12.613044m-1.705765-14.857955"/><path d="m39.360179 25.4958h10.538631"/><path d="m44.625509 25.653156v12.954293"/><path d="m19.046834 38.044219h6.606956"/><path d="m19.046834 25.653156h6.606956"/><path d="m19.046834 25.653156v12.391063"/></g><circle cx="4.316" cy="35.283676" r="3" stroke-width=".75"/></g></svg>

<?xml version="1.0" encoding="UTF-8" standalone="no"?>
<svg
   viewBox="0 0 48 48"
   version="1.1"
   id="svg12"
   sodipodi:docname="text.svg"
   inkscape:version="1.1.2 (0a00cf5339, 2022-02-04, custom)"
   xmlns:inkscape="http://www.inkscape.org/namespaces/inkscape"
   xmlns:sodipodi="http://sodipodi.sourceforge.net/DTD/sodipodi-0.dtd"
   xmlns="http://www.w3.org/2000/svg"
   xmlns:svg="http://www.w3.org/2000/svg">
  <defs
     id="defs16" />
  <sodipodi:namedview
     id="namedview14"
     pagecolor="#ffffff"
     bordercolor="#666666"
     borderopacity="1.0"
     inkscape:pageshadow="2"
     inkscape:pageopacity="0.0"
     inkscape:pagecheckerboard="0"
     showgrid="false"
     inkscape:zoom="3.5572917"
     inkscape:cx="14.898975"
     inkscape:cy="-27.689605"
     inkscape:window-width="1920"
     inkscape:window-height="1021"
     inkscape:window-x="1366"
     inkscape:window-y="35"
     inkscape:window-maximized="1"
     inkscape:current-layer="svg12" />
  <g
     id="g9132"
     transform="translate(-3.8401572,-7.432093)">
    <path
       style="fill:none;stroke:#0066b3;stroke-width:2;stroke-linecap:round;stroke-linejoin:miter;stroke-miterlimit:4;stroke-dasharray:none;stroke-opacity:1"
       d="m 19.242002,31.368589 h 6.114906"
       id="path3894-22-1-6"
       sodipodi:nodetypes="cc" />
    <path
       style="fill:none;stroke:#0066b3;stroke-width:2;stroke-linecap:round;stroke-linejoin:miter;stroke-miterlimit:4;stroke-dasharray:none;stroke-opacity:1"
       d="M 5.7815044,25.4958 H 16.320135"
       id="path3894" />
    <path
       style="fill:none;stroke:#0066b3;stroke-width:2;stroke-linecap:round;stroke-linejoin:miter;stroke-miterlimit:4;stroke-dasharray:none;stroke-opacity:1"
       d="M 11.046834,25.653156 V 38.607449"
       id="path3896" />
    <path
       style="fill:none;stroke:#0066b3;stroke-width:2;stroke-linecap:round;stroke-linejoin:miter;stroke-miterlimit:4;stroke-dasharray:none;stroke-opacity:1"
       d="m 28.924296,25.501648 8.359278,12.613044 m 1.705765,-14.857955"
       id="path3896-1"
       sodipodi:nodetypes="cc" />
    <path
       style="fill:none;stroke:#0066b3;stroke-width:2;stroke-linecap:round;stroke-linejoin:miter;stroke-miterlimit:4;stroke-dasharray:none;stroke-opacity:1"
       d="M 36.829689,25.567244 28.47041,38.180288 M 26.764645,23.322333"
       id="path3896-1-5"
       sodipodi:nodetypes="cc" />
    <path
       style="fill:none;stroke:#0066b3;stroke-width:2;stroke-linecap:round;stroke-linejoin:miter;stroke-miterlimit:4;stroke-dasharray:none;stroke-opacity:1"
       d="M 39.360179,25.4958 H 49.89881"
       id="path3894-2" />
    <path
       style="fill:none;stroke:#0066b3;stroke-width:2;stroke-linecap:round;stroke-linejoin:miter;stroke-miterlimit:4;stroke-dasharray:none;stroke-opacity:1"
       d="M 44.625509,25.653156 V 38.607449"
       id="path3896-7" />
    <path
       style="fill:none;stroke:#0066b3;stroke-width:2;stroke-linecap:round;stroke-linejoin:miter;stroke-miterlimit:4;stroke-dasharray:none;stroke-opacity:1"
       d="M 19.046834,38.044219 H 25.65379"
       id="path3894-22-1"
       sodipodi:nodetypes="cc" />
    <path
       style="fill:none;stroke:#0066b3;stroke-width:2;stroke-linecap:round;stroke-linejoin:miter;stroke-miterlimit:4;stroke-dasharray:none;stroke-opacity:1"
       d="M 19.046834,25.653156 H 25.65379"
       id="path3894-22-1-0"
       sodipodi:nodetypes="cc" />
    <path
       style="fill:none;stroke:#0066b3;stroke-width:2;stroke-linecap:round;stroke-linejoin:miter;stroke-miterlimit:4;stroke-dasharray:none;stroke-opacity:1"
       d="M 19.046834,25.653156 V 38.044219"
       id="path3896-6"
       sodipodi:nodetypes="cc" />
  </g>
  <circle
     cx="4.316"
     cy="35.283676"
     r="3"
     id="circle6"
     style="fill:none;stroke:#0066b3;stroke-width:0.75" />
</svg>
